X:1
T:Romanian Folk Dances No. 2 & No. 3
T:Danza rumana nยบ 2 
T:Bela Bartok
%%score { 1 | 2 }
L:1/8
Q:1/4=144
M:2/4
K:C
V:1 treble nm="Piano"
V:2 bass 
V:1
"^Allegro"!p! .D.E.F.G | .A.G.D.G | .A2 .Az/B/ | A4 | .G!<(!.A.B.G | c2!<)!!>(! (5:4:5(c/B/A/G/F/ | %6
 .G2)!>)! .Gz/(A/ | G4) | .G.A.B.G | !tenuto!c2 (c/!<(!B/A/G/!<)! | !>!FE).F.G | %11
!>(! .F.E !tenuto!D2!>)! | .D.E.F.A | .G.F.E.F | .D2 .Dz/A,/ | D4 :| %16
V:2
 .D,,2 .[F,A,]2 | .D,,2 .[G,B,]2 | .D,,2 .[A,DF]2 | [A,DF]4 | .G,,2 .[DF]2 | .A,,2 .[CF]2 | %6
 .G,,2 .[CD]2 | [B,D]4 | .F,,2 .[G,D]2 | .E,,2 .[B,C]2 | .[F,A,C]2 .[A,^C]2 | .[_B,D]2 .[_B,,F,]2 | %12
 .G,,2 .[D,B,]2 | .A,,2 .[G,^C]2 | .D,,2 .[D,F,A,]2 | [D,F,A,]4 :| %16

